X:15
T:The Little Cascade
C:McLennan
R:reel
Z:Transcribed by Lionel Gueganton
L:1/8
M:4/4
K:G
|: BeeggeBg | gfeB[gG]Beg | BeeggeBg |1 fdAdfagf :|2 fagffeeg
|: fBgfegBg | faaggffg    | fBgfegBg |  fagffeeB :|
|: EEBeBege | ggfgegBe    | EEBeBege |1 fdAdfagf :|2 fagffeef
|: gefgefge | fdefdefd    | gefgefge |1 fagffeef :|2 fagffeef |
|: Begfe2fd | BedfedBA    | Begfe2fd |1 Bedffeef :|2 Bedffeed
|: EdBddfef |1 gfgeBefd   | EdBddfee | Bedffeed  :|2 gfgeBefa | 
   g2gefded | Bedffeee    |

